X: 1
T: Lexy McAskill
M: 4/4
L: 1/8
C: Dr. John McAskill
R: Reel
N: This tune may be harmonized in Am or Em.
K: Em
"A"[|]a |\
"Em"e2 e2 de ed | "Em"e2 dB "G"GB Bd |\
"Em"e2 e2 de ed | "Em" eg "D"fd "Em"e2-e :|
"B"|: f |\
"Em"g2 f2 e2 dB | "D7"A2 dB "G"GB Be |\
"Em"g2 f2 e2 dB | "Em" eg "D"fd "Em"e2-e :|
"C"|: a |\
"Em"e2 e2 e2 dB | "D7"AA AB "G"GA Bd |\
"Em"e2 e2 e2 ed | "Em" eg "D"fd "Em"e2-e :|
"D"|: g |\
"Am"ae ea "Em"e2 dB | "D"A2 dB "Em"GB Be |\
"Am"ae ea "Em"e2 dB | "Em" eg "D"fd "Em"e2-e :|
